X:125
T:Flowers of Antrim, The
T:McDermott's
R:hornpipe
H:See also The Sligo Fancy, #126
Z:id:hn-hornpipe-125
M:C|
L:1/8
K:D
|: fe | dcdA FABA | GFGE C2ED | CDEF GABc | (3dfe (3dcB A2fe |
dcdA FABA | GFGE C2ED | CDEF GABc |1 d2f2 d2 :|2 d2f2 d2 ||
|: AG | FAdA FAdA | FAdB A2GF | E=c~c2 E=c~c2 | E=c~c2 ABAG |
FAdA FAdA | FAdA G2FG | Eeed cABc |1 d2f2 d2 :|2 d2f2 d2 ||

